!!!COM: Music21
!!!OTL: As Ciroliñas
!!!OMV: pezas_valses_as-cirolinas_as-cirolinas-partitura.musicxml
**kern
*I"Bagpipes
*I'Bag
*clefG^2
*k[b-]
*F:
*M3/4
=1
!LO:TX:a:t=Presto
*MM184
!LO:TX:a:t=[quarter]=184
4r
4dd
4ff
=||
4ee
4cc#X
[4ee
=
4ee]
2gg
=
4ff
4dd
[4ff
=
4ff]
2aa
=
4gg
4ff
[4ee
=
4ee]
2gg
=
4ff
4ee
[4dd
=
4dd]
4dd
4ff
=
4ee
4cc#X
[4ee
=
4ee]
2gg
=
4ff
4dd
[4ff
!!linebreak:original
=
4ff]
2aa
!!linebreak:original
=
4gg
4ff
[4ee
=
4ee]
2ff
=
[2.dd
=
8dd]
8r
4dd
4ff
=||
4ee
4cc#X
[4ee
=
4ee]
2gg
=
4ff
4dd
[4ff
=
4ff]
2aa
=
4gg
4ff
[4ee
=
4ee]
2gg
=
4ff
4ee
[4dd
=
4dd]
4dd
4ff
!!linebreak:original
=
4ee
4cc#X
[4ee
=
4ee]
2gg
=
4ff
4dd
[4ff
=
4ff]
2aa
!!linebreak:original
=
4gg
4ff
[4ee
=
4ee]
2ff
=
[2.dd
=
2dd]
4aa
=||
4aa
4bb-
4aa
=
2gg
4ee
=
2dd
4dd
=
2cc#X
4ee
=
4ee
4ff
4gg
!!linebreak:original
=
2aa
4aa
=
2gg
4ff
=
2ee
4aa
=
4aa
4bb-
4aa
=
2gg
4ee
=
2dd
4dd
=
2cc#X
4ee
=
4ee
4ff
4gg
=
2aa
4aa
=
2gg
4ff
=
2ee
4aa
!!linebreak:original
=
4aa
4bb-
4aa
=
2gg
4ee
=
2dd
4dd
=
2cc#X
4ee
=
4ee
4ff
4gg
=
2aa
4aa
=
2gg
4ff
=
2.ee
=
2.ee
=||
8ee
8r
4r
4aa
=
4aa
4bb-
4aa
!!linebreak:original
=
4gg
4ee
4gg
=
4ff
4dd
4ff
=
2ee
4ee
=
4ee
4ff
4gg
=
4aa
4aa
4aa
=
4gg
4gg
4ff
=
2ee
4aa
=
4aa
4bb-
4aa
=
2gg
4gg
!!linebreak:original
=
4ff
4dd
4ff
=
2ee
4ee
=
4ee
4ff
4gg
=
4aa
4aa
4aa
=
4gg
4gg
4ff
=
2.ee
=
2.ee
=
8ee
8r
2r
=
4r
4dd
4ff
==
*-
